X:41
T:Jer the Rigger
R:
M:4/4
K:G
d2 G2 d2 G2 | de dc B2 G2 | c3 B cd ef | g2 d2 e2 d2 |
d2 G2 d2 G2 | de dc B2 G2 | c2 ec B2 dB | A2 A2 G4 :||
g2 dd ed Bd | g2 dd ed Bd | c3 B cd ef | g2 dd ed Bd |
g2 dd ed Bd | g2 dd ed Bd | c2 ec B2 dB | A2 A2 G4 :||
